X:1
T:Venite e celebriam
T:Venite e celebriam
T:Trascrizione: Marco Cavallo
L:1/8
Q:1/4=60
M:4/4
K:C
V:1 treble nm="Piano" snm="Pno."
V:1
 z"G7" G,CD |"C" DE/E/- E2 D/EF/ ED/C/ |"Am" DE/E/- E2 D/EF/ ED |"F" D<C- C2"Dm" z A,FE | %4
w: Ve- ni- tee|ce- le- briam, * Fi- glio di Dio noi ti|ce- le- briam, * ci des- ti la tua|vi- ta, * fu per a-|
"G7" D4 z G,CD |"C" DE/E/- E2 D/EF/ ED/C/ |"Am" DE/E/- E2 D/EF/ ED | %7
w: mor. Ti e- sal-|tia- mo Re, * gran- deè la gio- ia che|Tu ci dai, * ve- nia- moa Te of-|
"F" DE/C/- C2"Dm" z/ D/D/D/"G7" CB, |"C" C4"C7" z CDE |"F" EF/F/- F2"Dm" EF/F/- F2 | %10
w: fren- do- ti * la nos- traa- do- ra-|zion. Ve- ni- tee|ce- le- briam, * ce- le- briam, *|
"C" EE/E/- ED"Am" C>C- C2 |"Dm" FF/F/- FE"G7" DDCD |"C" E4"C7" z CDE |"F" EF/F/- F2"Dm" EF/F/- F2 | %14
w: ce- le- bria- * moin- sie- me, *|ce- le- bria- * moin- sie- me il Si-|gnor Ve- ni- tee|ce- le- briam, * ce- le- briam, *|
"C" EE/E/- ED"Am" C>C- C2 |"Dm" FF/F/- FE"G7" DDCB, |"C" C4 |] %17
w: ce- le- bria- * moin- sie- me, *|ce- le- bria- * moin- sie- me il Si-|gnor|

